X: 51
T:Walk Old Shoe
M:4/4
L:1/8
R:Reel
K:D
D2 D2 F2 A2|d2 dA BA FG|A2 AB AF DE|FE E2 E2 FE|!
D2 D2 F2 A2|d2 dA BA FG|A2 AB AF DE|F2 E2 D4:|!
f3  g fe d2|efed B2|FG A2 AB|AFDE|!
FE E2 E2 FE|f3 g fe d2|efed B2|FG A2 AB|!
AFDE|F2 E2 D4:|
